X: 290
T: Fraher's
R: jig
M: 6/8
L: 1/8
K: Dmix
"D"~A3 "C"GED | "D"~F3 "C"GED | "D"~A3 "C"GEA | "D"~D3 DEG |
"D"~A3 "C"GED | "D"~F3 "C"GED | "D"A/B/cA "C"GEA | "D"~D3 DEG :|
|: "D"ABc ~d2A | ~d2A "Am"AGE | "G"GAB "Am"c2A | "G"BGE "D"EDD |
"D"dAA def | dcA "Am"AGE | "D"~A3 "C"GEA | "D"~D3 DEG :|

